X: 37
T: No_138_Do_Not_Weep.krn
N: Derived from No_138_Do_Not_Weep.krn
%%abc-version 2.0
%%abcx-abcm2ps-target-version 5.9.1 (29 Sep 2008)
%%abc-creator hum2abc beta
%%abcx-conversion-date 2019/03/15 08:29:13
%%humdrum-veritas 320436831
%%humdrum-veritas-data 4087679163
%%linebreak <none>
%%barnumbers 0
L: 1/4
M: 3/4
K: Eb clef=bass
[K:clef=bass][M:3/4]CCC | 
G,G,D | 
C3 | 
CG,G, | 
F,F,C | 
G,3 | 
G,F,E, | 
C,C,G, | 
F,3 | 
CG,F, | 
E,/E,/ C,3//C,//F, | 
C,3 |]  



